X:122
T:TOMTINK- Tom Tinker
S:Pills to Purge Melancholy, II, 1712, and VI, 1720
M:3/4
L:1/4
K:C
gg/a/(b/g/)|c'gg|ec(c/d/)|c2G|c/d/c/d/ e/f/|\
ggd|BG(G/A/)|G2||d|d3/2e/ d/c/|BGG|e3/2f/e/d/|\
cAAf3/2g/f/e/|dBg|ec(d/d/)c3|]

